!! 00000] TT[00
!! NN
!!!OTL: Shichai shaohuao yanzi duo
!!!ARE: Asia, China,ÿSichuan, Zigong
!! Ethnic Group: Han
!! II, 248
!!!SCT: C0231
!!!YEM: Copyright 1995, estate of Helmut Schaffrath.
**kern
*ICvox
*Ivox
!! Irregular meter.
*MX
*k[f#c#g#]
*A:
{8bb
8eee
2ccc#
=1
8bb
16ccc#
16eee
4.bb
24ff#
24ee
24dd#
4.ee
8r}
{8ccc#
16ccc#
16bb
8aa
8bb
8ccc#
8aa
4ff#}
{2bb
=2
8ccc#
8aa
16ff#
16cc#
8ee
=3
8ff#
8cc#
4b}
=4
{2bb
=5
8eee
8bb
16ccc#
16eee
8ccc#
=6
2bb}
=7
{8bb
8eee
2ccc#
=8
8bb
16ccc#
16eee
4.bb
24ff#
24ee
24dd#
2ee}
{8ccc#
16ccc#
16bb
8aa
8bb
8ccc#
8aa
4ff#
=9
8bb
4bb
8r}
=10
{8bb
4bb
8r
=11
4bb
4eee
8bb
16ccc#
16eee
2bb
=12
2ff#}
==
!!!AGN: Haozi, Yangong haozi, Wanzige. Dajing laodong zhong chang
!! Im Kreis Zigong gibt es viele Salzbrunnen, die stark salzhaltiges
!!    Wasser enthalten. Mit einer Tretvorrichtung wurden die Toepfe
!!    hochgeseilt. Eine nicht sehr schwere Arbeit, fuer die man schon
!!    in der Qing-Dynastie 24 Stunden lang, !) ausgenutzt wurde. Das
!!    Lied sang man, um nicht einzuschlafen. Folglich dauert ein Satz
!!    auch relativ lange.  Vereinzelt Verzierungen. +++++ Die Original-
!!    Taktvorzeichnung war: 2/4 3/4 4/4 5/4. Wurde in FREI ge„ndert. ++++
!!!ONB: ESAC (Essen Associative Code) Database: CHINA
!!!AMT: irregular
!!!AIN: vox
!!!EED: Helmut Schaffrath
!!!EEV: 1.0
*-
